X:1
T:Benedictus - Lotti
T:James Gibb editions
T:#
%%score [ 1 2 3 4 ]
L:1/8
Q:1/4=180
M:3/2
K:C
V:1 treble nm="Soprano" snm="S"
V:2 treble nm="Alto" snm="A"
V:3 treble-8 nm="Tenor" snm="T"
V:4 bass nm="Bass" snm="B"
V:1
"^Benedictus" z4"^Antonio Lotti\n(1667-1740)""^dolce"!pp! c6 c2 | d4 B8 | c6 c2 d4 | c4 !>!c8 | %4
w: Be- ne-|di- ctus|Do- mi- nus|De- us|
 B6 B2 B4 | c4 c4 c2 c2 | A4 A6 A2 |[M:3/2] d4 d2 d2 d2 d2 | c4 c4 c4 | c4 (c4 B4) | c8 z4 | %11
w: I- sra- el:|qui- a vi- si-|ta- vit et|fe- cit re- dem- pti-|o- nem ple-|bis su\- *|ae;|
 z4!f! c4 c4 | d8 B4 | c4 c4 c4 | B8 d4 | B8 B4 | B4 B4 e4 | A8 A4 | B6 B2 c4- | c4 A8 | B8 z4 | %21
w: et e-|re- xit|cor- nu sa-|lu- tis|no- bis:|in do- mo|Da- vid|pu- e- ri|* su-|i;|
 B4 B4 B4 | d4 e8 | A12 | B4 B4 B4 | B4 B4 A4 | B6 B2 B2 B2 | B4 B8 | z4!pp! B4 B4 | B6 B2 B4 | %30
w: si- cut lo-|cu- tus|est|per os san-|cto- rum su-|o- rum pro- phe-|ta- rum:|quae a|sae- cu- lo|
 B12 | z4 z4!mp! c4 | c6 c2 e2 e2 | d12 | c4 c2 B2 A2 A2 | ^G4 G8 | z12 | z12 | z12 | z4 A4 A4 | %40
w: sunt;|et|li- be- ra- vit|nos|ab i- ni- mi- cis|no- stris:||||et de|
 (d6 c2) d4 | B6 A2 B4 | ^G12 | A4 A4 ^G4 | A12 |!p! A4 A4 A4 | c8 c4 | ^c4 c4 c4 | d6 d2 d4 | %49
w: ma\- * nu|o- mni- um|qui|o- de- runt|nos.|Ad fa- ci-|en- dam|mi- se- ri-|cor- di- am|
 B4 B4 c2 c2 | B4 B8 | z12 | z12 | z12 |"^cresc." c4 c4 c4 | B6 A2 B2 G2 | A8 d4 | c8 c4- | c4 B8 | %59
w: cum pa- tri- bus|no- stris:||||et me- mo-|ra- ri te- sta-|men- ti|su- i|* san-|
 c12 | z4 c4 c4 | d8 d4 | d4 d8 | ^c4 c4 c4 | d6 d2 d4 |!p! A4 A8 | A8 A4 | z12 | z12 | z4 d4 _B4 | %70
w: cti;|jus- ju-|ran- dum|quod ju-|ra- vit ad|A- bra- ham|pa- trem|no- strum:|||da- tu-|
 G8 !>!F4- | F4 E8 | F12 || z8 z4!f! F4 | c4 c2 c2 (c8- | c4 _B2 A2 B8) | A6 A2 A4 A4 | %77
w: rum se|* no-|bis.|Ut|si- ne ti- mo\-||re de ma- nu|
 =B4 B2 B2 B4 B2 B2 | c4 c4 B4 A4 | ^G4 G4 z4 G2 G2 | A4 A4 (A4 ^G4) | A8 z4 A4 | A4 A4 A4 A4 | %83
w: i- ni- mi- co- rum no-|stra- rum: li- be-|ra- ti ser- vi-|a- mus il\- *|li; in|san- cti- ta- te|
 z4 A2 A2 A4 A2 A2 | A4 G4 ^F4 F4 | B3 B B2 B2 A4 G4 | ^F8 G8 | z16 | z16 | z16 | z16 | %91
w: et ju- sti- ti- a|co- ram i- pso:|o- mni- bus di- e- bus|no- stris.|||||
 B4 B4 B4 B2 ^c2 | d4 d2 d2 d2 d2 ^c2 B2 | (^c6 ^d2 e4) =c4 | B4 B4 B4 B4 | c4 c4 c4 c4 | %96
w: Et tu pu- er pro-|phe- ta al- tis- si- mi vo-|ca\- * * be-|ris: prae- i- bis|e- nim an- te|
 B4 B2 d2 B6 B2 | A16 | z16 | z16 | z4 A4 d4 A4 | B4 ^F4 (G6 F2 | G2 A2 !>!B8 A2 G2 | %103
w: fa- ci- em Do- mi-|ni|||pa- ra- re|vi- as e\- *||
 ^F2 D2 !>!G8 F4) | G12 B4 | d4 d2 d2 d6 d2 | d4 d4 c4 c4 | e4 e4 c8 | B8 ^c6 c2 | ^c4 c4 d4 d4 | %110
w: |ius; ad|dan- dam sci- en- ti-|am sa- lu- tis|ple- bis e-|ius: in re-|mis- si- o- nem|
 A4 A4 _B4 A2 A2 | A8 A8 | z4 _B4 B6 B2 | _B8 B8 | _B4 B4 =B6 B2 | B8 B4 B4 | c8 B8 | z16 | z16 | %119
w: pec- ca- to- rum e-|o- rum;|per vi- sce-|ra mi-|se- ri- cor- di-|ae De- i|no- stri:|||
 z8 z4 c4 | d4 A4 B4 d4 | c4 B4 A8 | z8 A6 B2 | c6 d2 (e4 c4 | d4 !>!c8 B4) | c16 | A8 A4 A4 | %127
w: in|qui- bus vi- si-|ta- vit nos|o- ri-|ens e- xal\- *||to;|il- lu- mi-|
 A8 A8 | _B16 | z4 !>!=B8 B4 | c6 c2 c8 | ^c16 | d8 B8 | G8 G8 | G16 | G16 | z16 | z16 | z16 | %139
w: na- re|his|qui in|te- ne- bris,|et|um- bra|mor- tis|se-|dent:||||
 z16 | z16 | G8 A4 A4 | B4 B4 !>!c6 B2 | A8 G8 | z4 c4 c4 B4 | (c6 B2 A4 d4 | G8 c8) | B8 z8 | %148
w: ||ad di- ri-|gen- dos pe- des|no- stros|in vi- am|pa\- * * *||cis,|
 z16 | z8 z4 d4 | d4 ^c4 (d6 =c2 | B8 A8) | G12 c4 | c4 B4 (c6 _B2 | A6 !courtesy!=B2 c8- | %155
w: |in|vi- am pa\- *||cis, in|vi- am pa\- *||
 c4 B4) c4[Q:1/4=178] c4 |[Q:1/4=172] A8[Q:1/4=165] c8 |[Q:1/4=156] A16 |[Q:1/4=150] G16 |] %159
w: * * cis, in|vi- am|pa-|cis.|
V:2
 z4!pp! G6 G2 | G4 G8 | F6 A2 G4 | G4 !>!^F8 | G6 G2 G4 | G4 G4 G2 G2 | F4 F6 F2 | %7
w: Be- ne-|di- ctus|Do- mi- nus|De- us|I- sra- el:|qui- a vi- si-|ta- vit et|
[M:3/2] A4 A2 A2 A2 B2 | A4 A4 G4 | G4 G8 | G8 z4 | z4!f! G4 G4 | G8 G4 | G4 G4 ^F4 | G8 A4 | %15
w: fe- cit re- dem- pti-|o- nem ple-|bis su-|ae;|et e-|re- xit|cor- nu sa-|lu- tis|
 G8 G4 | G4 G4 G4 | ^F8 F4 | G6 G2 G4- | G4 (G4 ^F4) | G8 z4 | G4 G4 G4 | A4 G8 | ^F12 | %24
w: no- bis:|in do- mo|Da- vid|pu- e- ri|* su\- *|i;|si- cut lo-|cu- tus|est|
 ^F4 F4 F4 | G4 G4 ^F4 | E6 E2 G2 G2 | ^F4 F8 | z4!pp! G4 G4 | ^F6 F2 F4 | G12 | z4 z4!mp! G4 | %32
w: per os san-|cto- rum su-|o- rum pro- phe-|ta- rum:|quae a|sae- cu- lo|sunt;|et|
 A6 A2 A2 A2 | B12 | A4 E2 E2 E2 E2 | E4 E8 | z12 | z12 | z4 E4 E4 | (A6 G2) A4 | F6 E2 F4 | F12 | %42
w: li- be- ra- vit|nos|ab i- ni- mi- cis|no- stris:|||et de|ma\- * nu|o- mni- um|qui|
 E12- | E4 E4 E4 | E12 |!p! F4 F4 F4 | G8 G4 | G4 G4 G4 | ^F6 F2 F4 | G4 G4 G2 G2 | G4 G8 | z12 | %52
w: o\-|* de- runt|nos.|Ad fa- ci-|en- dam|mi- se- ri-|cor- di- am|cum pa- tri- bus|no- stris:||
"^cresc." G4 G4 G4 | F6 E2 F2 D2 | E6 D2 E2 ^F2 | G4 G8 | z4 A4 A4 | G4 G4 G4 | A4 G8 | G12 | %60
w: et me- mo-|ra- ri te- sta-|men- ti su- i|san- cti,|te- sta-|men- ti su-|i san-|cti;|
 z4 G4 G4 | G8 G4 | ^G4 G8 | A4 A4 A4 | A6 A2 A4 |!p! F4 F8 | E8 E4 | z12 | z4 z4 A4 | F4 D4 D4 | %70
w: jus- ju-|ran- dum|quod ju-|ra- vit ad|A- bra- ham|pa- trem|no- strum:||da-|tu- rum, da-|
 E4 E4 !>!D4- | D4 ^C8 | D12 || z4!f! D4 F4 F2 F2 | (_E16- | E8 D8) | C6 F2 D4 D4 | %77
w: tu- rum se|* no-|bis.|Ut si- ne ti-|mo\-||re de ma- nu|
 D4 D2 D2 E4 E2 E2 | E4 E4 F4 E4 | E4 E4 z4 E2 E2 | E4 F4 E8 | E8 z4 E4 | F4 F4 ^F4 F4 | %83
w: i- ni- mi- co- rum no-|stra- rum: li- be-|ra- ti ser- vi-|a- mus il-|li; in|san- cti- ta- te|
 z4 ^F2 F2 F4 F2 F2 | ^F4 E4 ^D4 D4 | E3 E E2 E2 E4 E4 | (E4 ^D4) E8 | z16 | z16 | z16 | %90
w: et ju- sti- ti- a|co- ram i- pso:|o- mni- bus di- e- bus|no\- * stris.||||
 E4 E4 E4 E2 ^F2 | G4 G2 G2 G2 G2 ^F2 E2 | (^F6 E2 F4 ^G4 | A8 =G6) ^F2 | ^F6 F2 G4 G4 | %95
w: Et tu pu- er pro-|phe- ta al- tis- si- mi vo-|ca\- * * *|* * be-|ris: prae- i- bis|
 E4 E4 A4 A4 | G4 G2 A2 G6 G2 | ^F16 | z8 z4 D4 | G4 D4 E4 B,4 | (C4 D2 E2 D8) | D4 D4 D4 D4 | %102
w: e- nim an- te|fa- ci- em Do- mi-|ni|pa-|ra- re vi- as|e\- * * *|ius, pa- ra- re|
 B,4 G2 (^F2 E8 | D16) | D12 G4 | ^G4 G2 G2 G6 G2 | ^G4 G4 A4 A4 | B4 B4 A8 | ^G8 A6 A2 | %109
w: vi- as e\- *||ius; ad|dan- dam sci- en- ti-|am sa- lu- tis|ple- bis e-|ius: in re-|
 _B4 B4 A4 A4 | F4 F4 G4 F2 F2 | E8 F8 | z4 F4 F6 F2 | F8 F8 | F4 F4 F6 F2 | F8 F4 F4 | _E8 D8 | %117
w: mis- si- o- nem|pec- ca- to- rum e-|o- rum;|per vi- sce-|ra mi-|se- ri- cor- di-|ae De- i|no- stri:|
 z16 | z16 | z4 G4 A4 E4 | F4 A4 G4 F4 | E8 C6 E2 | F6 G2 A8- | A8 G4 G4 | (A4 E2 F2 G8) | G16 | %126
w: ||in qui- bus|vi- si- ta- vit|nos o- ri-|ens e- xal\-|* to, e-|xal\- * * *|to;|
 _E8 E4 E4 | _E8 E8 | F16 | z4 !>!F8 F4 | G6 G2 G8 | A16 | A8 F8 | F8 (F8- | F4 E2 D2) E8 | D16 | %136
w: il- lu- mi-|na- re|his|qui in|te- ne- bris,|et|um- bra|mor- tis|* * * se-|dent:|
 z16 | z16 | z16 | z16 | C8 D4 D4 | E4 E4 !>!F6 E2 | D8 C4 G4 | G4 ^F4 (G6 =F2 | E6 F2 G8) | %145
w: ||||ad di- ri-|gen- dos pe- des|no- stros in|vi- am pa\- *||
 E8 z8 | z16 | z4 G4 G4 ^F4 | (G6 F2 E8) | D4 A4 A4 G4 | G8 ^F8 | G8 A4 A4 | B4 B4 G4 G4 | %153
w: cis,||in vi- am|pa\- * *|cis, in vi- am|pa- cis,|ad di- ri-|gen- dos pe- des|
 F8 G4 G4 | G4 F4 G8- | G8 G4 G4 | G4 F4 (G8- | G4 F2 E2 F8- | F4 E2 D2) E8 |] %159
w: no- stros in|vi- am pa\-|* cis, in|vi- am pa\-||* * * cis.|
V:3
 z4!pp! e6 e2 | d4 d8 | c6 f2 d4 | e4 !>!c8 | d6 d2 d4 | e4 e4 e2 e2 | c4 c6 c2 | %7
w: Be- ne-|di- ctus|Do- mi- nus|De- us|I- sra- el:|qui- a vi- si-|ta- vit et|
[M:3/2][K:treble-8] f4 f2 f2 f2 f2 | e4 e4 e4 | e4 d8 | e8 z4 | z4!f! e4 e4 | d8 d4 | e4 e4 c4 | %14
w: fe- cit re- dem- pti-|o- nem ple-|bis su-|ae;|et e-|re- xit|cor- nu sa-|
 d8 d4 | d8 d4 | d4 d4 ^c4 | d8 d4 | d6 d2 e4- | e4 d8 | d8 z4 | d4 d4 d4 | d8 ^c4 | d12 | %24
w: lu- tis|no- bis:|in do- mo|Da- vid|pu- e- ri|* su-|i;|si- cut lo-|cu- tus|est|
 B4 B4 B4 | e4 e4 ^d4 | B6 B2 e2 e2 | ^d4 d8 | z4!pp! e4 e4 | e6 e2 ^d4 | e12 | z4 z4!mp! e4 | %32
w: per os san-|cto- rum su-|o- rum pro- phe-|ta- rum:|quae a|sae- cu- lo|sunt;|et|
 e6 e2 e2 e2 | e12 | e4 e2 e2 c2 c2 | B4 B8 | z4 B4 B4 | (e6 d2) e4 | c6 B2 c4 | z4 A4 A4 | A8 A4 | %41
w: li- be- ra- vit|nos|ab i- ni- mi- cis|no- stris:|et de|ma\- * nu|o- mni- um|qui o-|de- runt,|
 d12 | (B12 | c4) B4 B4 | c12 |!p! c4 c4 c4 | c8 c4 | G4 G4 G4 | A6 A2 d4 | d4 d4 e2 e2 | d4 d8 | %51
w: qui|o\-|* de- runt|nos.|Ad fa- ci-|en- dam|mi- se- ri-|cor- di- am|cum pa- tri- bus|no- stris:|
"^cresc." c4 c4 c4 | B6 A2 B2 G2 | A6 G2 A2 B2 | (c6 B2 A4 | G4) d8 | z4 d4 A4 | e4 e4 e4 | f4 d8 | %59
w: et me- mo-|ra- ri te- sta-|men- ti, te- sta-|men\- * *|* ti,|te- sta-|men- ti su-|i san-|
 e12 | z4 e4 e4 | d8 d4 | d4 d8 | e4 e4 e4 | f6 f2 f4 |!p! d4 d8 | ^c8 c4 | z4 z4 e4 | ^c4 A4 z4 | %69
w: cti;|jus- ju-|ran- dum|quod ju-|ra- vit ad|A- bra- ham|pa- trem|no- strum:|da-|tu- rum,|
 d4 _B4 G4 | z4 z4 !>!A4- | A4 A8 | A12 || z4!f! F4 d4 d2 d2 | (c16 | A4 G2 F2 G8) | A6 c2 A4 d4 | %77
w: da- tu- rum|se|* no-|bis.|Ut si- ne ti-|mo\-||re de ma- nu|
 B4 B2 B2 B4 e2 e2 | c4 c4 d4 c4 | B4 B4 z4 B2 B2 | c4 d4 B8 | c8 z4 c4 | c4 c4 d4 d4 | %83
w: i- ni- mi- co- rum no-|stra- rum: li- be-|ra- ti ser- vi-|a- mus il-|li; in|san- cti- ta- te|
 z4 d2 d2 ^d4 d2 d2 | ^d4 B4 B4 B4 | B3 B B2 B2 c4 B4 | B8 B8 | z16 | B4 B4 B4 B2 ^c2 | %89
w: et ju- sti- ti- a|co- ram i- pso:|o- mni- bus di- e- bus|no- stris.||Et tu pu- er pro-|
 d4 d2 d2 d2 d2 ^c2 B2 | (^c6 B2 c6 ^d2 | e6) e2 B4 e4 | d6 d2 d4 d4 | (e4 ^f4 B4) e4 | %94
w: phe- ta al- tis- si- mi vo-|ca\- * * *|* be- ris, al-|tis- si- mi vo-|ca\- * * be-|
 ^d4 d4 e4 e4 | c4 c4 d4 d4 | d4 d2 d2 d6 d2 | d12 A4 | d4 A4 B4 ^F4 | (G2 A2 B6 A2 G4 | A12 d4) | %101
w: ris: prae- i- bis|e- nim an- te|fa- ci- em Do- mi-|ni pa-|ra- re vi- as|e\- * * * *||
 B4 A4 B4 A4 | G4 !>!d8 (c4- | c4 B4 A8) | B12 d4 | B4 B2 B2 B6 B2 | B4 e4 e4 e4 | e4 e4 e8 | %108
w: ius, pa- ra- re|vi- as e\-||ius; ad|dan- dam sci- en- ti-|am sa- lu- tis|ple- bis e-|
 e8 e6 e2 | e4 e4 f4 f4 | d4 d4 d4 d2 d2 | (d4 ^c4) d8 | z4 d4 d6 d2 | d8 d8 | d4 d4 d6 d2 | %115
w: ius: in re-|mis- si- o- nem|pec- ca- to- rum e-|o\- * rum;|per vi- sce-|ra mi-|se- ri- cor- di-|
 d8 d4 G4 | G8 =B8 | z8 z4 c4 | d4 A4 B4 d4 | (c4 B4 A4) G4 | A4 d4 d4 B4 | c4 G4 (A4 c4 | %122
w: ae De- i|no- stri:|in|qui- bus vi- si-|ta\- * * vit|nos, in qui- bus|vi- si- ta\- *|
 d6 d2 c4 f4- | f4 f4 e4 e4 | (A2 B2 c4 d8) | e16 | c8 c4 c4 | c8 c8 | d16 | z4 !>!d8 d4 | %130
w: * vit nos o\-|* ri- ens e-|xal\- * * *|to;|il- lu- mi-|na- re|his|qui in|
 e6 e2 e8 | e16 | A8 d8 | d8 d8- | d4 c2 B2) (c8- | c4 B2 A2) B8 | z16 | G8 A4 A4 | %138
w: te- ne- bris,|et|um- bra|mor- tis|* * * se\-|* * * dent:||ad di- ri-|
 B4 B4 !>!c6 B2 | A8 G8 | z4 c4 c4 B4 | (c6 B2 A4 d4 | B6 A2 G2 A2 B2 c2 | !>!d6 c2 B4 e2 d2 | %144
w: gen- dos pe- des|no- stros|in vi- am|pa\- * * *|||
 c8) d8 | c8 d4 d4 | e4 e4 !>!f6 e2 | (d8 c8) | B4 d4 d4 ^c4 | (d6 =c2 B6 A2 | G8 A8 | %151
w: * cis,|ad di- ri-|gen- dos pe- des|no\- *|stros in vi- am|pa\- * * *||
 G2 A2 B4 c4 d4) | d4 d4 d4 c4 | d8 e4 e4 | e4 d4 (e8 | d8) e4 e4 | c8 c8 | c16 | c16 |] %159
w: |cis, in vi- am|pa- cis, in|vi- am pa\-|* cis, in|vi- am|pa-|cis.|
V:4
 z4!pp! C6 C2 | B,4 G,8 | A,6 A,2 B,4 | C4 !>!A,8 | G,6 G,2 G,4 | E,4 E,4 E,2 E,2 | F,4 F,6 F,2 | %7
w: Be- ne-|di- ctus|Do- mi- nus|De- us|I- sra- el:|qui- a vi- si-|ta- vit et|
[M:3/2] D,4 D,2 E,2 F,2 G,2 | A,4 A,4 E,4 | C,4 G,8 | C,8 z4 | z4!f! C4 C4 | B,8 B,4 | %13
w: fe- cit re- dem- pti-|o- nem ple-|bis su-|ae;|et e-|re- xit|
 A,4 A,4 A,4 | G,8 ^F,4 | G,8 G,4 | G,4 G,4 E,4 | D,8 D,4 | G,6 G,2 C,4- | C,4 D,8 | G,,8 z4 | %21
w: cor- nu sa-|lu- tis|no- bis:|in do- mo|Da- vid|pu- e- ri|* su-|i;|
 G,4 G,4 G,4 | ^F,4 E,8 | D,12 | ^D,4 D,4 D,4 | E,4 E,4 ^F,4 | G,6 G,2 E,2 E,2 | B,4 B,,8 | %28
w: si- cut lo-|cu- tus|est|per os san-|cto- rum su-|o- rum pro- phe-|ta- rum:|
 z4!pp! E,4 E,4 | B,,6 B,,2 B,,4 | E,12 | z4 z4!mp! C4 | C6 C2 C2 C2 | ^G,12 | %34
w: quae a|sae- cu- lo|sunt;|et|li- be- ra- vit|nos|
 A,4 A,2 ^G,2 A,2 A,,2 | E,4 E,8 | z12 | z4 E,4 E,4 | (A,6 G,2) A,4 | F,6 E,2 F,4 | D,12 | D,12 | %42
w: ab i- ni- mi- cis|no- stris:||et de|ma\- * nu|o- mni- um|qui|o-|
 E,8 E,4 | A,,4 E,4 E,4 | A,,12 |!p! F,4 F,4 F,4 | E,8 E,4 | _E,4 E,4 E,4 | D,6 D,2 D,4 | %49
w: de- runt,|o- de- runt|nos.|Ad fa- ci-|en- dam|mi- se- ri-|cor- di- am|
 G,4 G,4 C,2 C,2 | G,4 G,8 | z12 | z12 | z12 | z12 |"^cresc." G,4 G,4 G,4 | F,6 E,2 F,2 D,2 | %57
w: cum pa- tri- bus|no- stris:|||||et me- mo-|ra- ri te- sta-|
 E,4 C,4 C4 | F,4 G,8 | C,12 | z4 C4 C4 | B,8 B,4 | _B,4 B,8 | A,4 A,4 A,4 | F,6 F,2 F,4 | %65
w: men- ti su-|i san-|cti;|jus- ju-|ran- dum|quod ju-|ra- vit ad|A- bra- ham|
!p! F,4 D,8 | A,8 A,4 | z12 | A,4 F,4 D,4 | z4 z4 G,4 | E,4 ^C,4 !>!D,4- | D,4 A,,8 | D,12 || %73
w: pa- trem|no- strum:||da- tu- rum,|da-|tu- rum se|* no-|bis.|
 z4!f! _B,,4 _B,4 B,2 B,2 | (_B,8 A,8 | F,8 =E,8) | F,6 F,2 ^F,4 F,4 | G,4 G,2 G,2 ^G,4 G,2 G,2 | %78
w: Ut si- ne ti-|mo\- *||re de ma- nu|i- ni- mi- co- rum no-|
 A,4 A,4 D,4 A,4 | E,4 E,4 z4 E,2 E,2 | A,4 D,4 E,8 | A,,8 z4 A,4 | F,4 F,4 D,4 D,4 | %83
w: stra- rum: li- be-|ra- ti ser- vi-|a- mus il-|li; in|san- cti- ta- te|
 z4 D,2 D,2 B,,4 B,,2 B,,2 | B,,4 E,4 B,,4 B,,4 | G,3 G, G,2 G,2 A,4 E,4 | B,,8 E,8 | %87
w: et ju- sti- ti- a|co- ram i- pso:|o- mni- bus di- e- bus|no- stris.|
 E,4 E,4 E,4 E,2 ^F,2 | G,4 G,2 G,2 G,2 G,2 ^F,2 E,2 | (^F,6 E,2 F,4 ^G,4 | A,12) (=G,2 ^F,2) | %91
w: Et tu pu- er pro-|phe- ta al- tis- si- mi vo-|ca\- * * *|* be\- *|
 E,12 E,4 | B,6 B,2 B,4 B,4 | (A,4 ^F,4 E,6) E,2 | B,4 B,4 G,4 G,4 | A,4 A,4 ^F,4 F,4 | %96
w: ris, al-|tis- si- mi vo-|ca\- * * be-|ris: prae- i- bis|e- nim an- te|
 G,4 G,2 ^F,2 G,6 G,2 | D,16 | z4 D,4 G,4 D,4 | E,4 B,,4 (C,4 G,4- | G,4 ^F,2 E,2 F,8) | %101
w: fa- ci- em Do- mi-|ni|pa- ra- re|vi- as e\- *||
 G,4 D,4 G,4 D,4 | E,4 B,,4 (C,8 | D,16) | G,12 G,4 | =F,4 F,2 F,2 E,6 E,2 | E,4 E,4 A,4 A,4 | %107
w: ius, pa- ra- re|vi- as e\-||ius; ad|dan- dam sci- en- ti-|am sa- lu- tis|
 ^G,4 G,4 A,8 | E,8 A,6 A,2 | _G,4 G,4 F,4 F,4 | F,4 D,4 =G,4 D,2 D,2 | A,,8 D,8 | %112
w: ple- bis e-|ius: in re-|mis- si- o- nem|pec- ca- to- rum e-|o- rum;|
 z4 _B,4 B,6 B,2 | _B,8 B,8 | _B,4 B,4 _A,6 A,2 | _A,8 G,4 G,4 | C,8 G,8 | z4 G,4 A,4 E,4 | %118
w: per vi- sce-|ra mi-|se- ri- cor- di-|ae De- i|no- stri:|in qui- bus|
 F,4 A,4 G,4 F,4 | E,4 E,4 F,4 C,4 | F,4 F,4 G,8 | A,4 E,4 (F,6 E,2 | D,6 E,2 F,6 G,2 | %123
w: vi- si- ta- vit|nos, in qui- bus|vi- si- ta-|vit nos o\- *|* ri- ens e-|
 (A,6 B,2 C4 E,4 | F,4 A,4 G,8) | C,16 | _E,8 E,4 E,4 | _E,8 E,8 | D,16 | z4 !>!F,8 F,4 | %130
w: xal\- * * *||to;|il- lu- mi-|na- re|his|qui in|
 =E,6 E,2 E,8 | A,16 | F,8 D,8 | B,,8 B,,8 | C,16 | G,16 | C,8 D,4 D,4 | E,4 E,4 !>!F,6 E,2 | %138
w: te- ne- bris,|et|um- bra|mor- tis|se-|dent:|ad di- ri-|gen- dos pe- des|
 D,8 C,8 | z4 F,4 F,4 E,4 | F,6 E,2 D,4 G,4 | C,8 F,8 | G,6 F,2 E,4 G,4 | D,8 G,8 | A,8) G,8 | %145
w: no- stros|in vi- am|pa\- * * *|||||
 z4 C4 C4 B,4 | (!>!C6 B,2 A,4 C4 | G,8 A,4 D,4) | G,4 G,4 A,8 | ^F,8 (G,8 | E,8) D,8 | %151
w: in vi- am|pa\- * * *||cis, in vi-|am pa\-|* cis,|
 z4 G,6 G,2 ^F,4 | (G,6 =F,2 E,8 | D,8 C,8 | F,8 E,4 C,4 | G,8) C,4 C,4 | F,8 E,8 | F,16 | C,16 |] %159
w: in vi- am|pa\- * *|||* cis, in|vi- am|pa-|cis.|

